src/assets/tron/TR7NHqjeKQxGTCi8q8ZY4pL8otSzgjLj6t/logo.svg

<svg width="36" height="36" viewBox="0 0 36 36" fill="none" xmlns="http://www.w3.org/2000/svg">
<g clip-path="url(#clip0_3247_20504)">
<path d="M18.001 36C27.9421 36 36.001 27.9411 36.001 18C36.001 8.05887 27.9421 0 18.001 0C8.05985 0 0.000976562 8.05887 0.000976562 18C0.000976562 27.9411 8.05985 36 18.001 36Z" fill="#26A17B"/>
<path fill-rule="evenodd" clip-rule="evenodd" d="M20.1633 19.5554V19.5531C20.0395 19.5621 19.4016 19.6004 17.9785 19.6004C16.8423 19.6004 16.0424 19.5666 15.7611 19.5531V19.5565C11.3871 19.3641 8.12238 18.6025 8.12238 17.6913C8.12238 16.7811 11.3871 16.0195 15.7611 15.8238V18.7983C16.0469 18.8185 16.8659 18.8669 17.9976 18.8669C19.3555 18.8669 20.0361 18.8106 20.1633 18.7994V15.826C24.5283 16.0206 27.7851 16.7823 27.7851 17.6913C27.7851 18.6025 24.5283 19.3619 20.1633 19.5554ZM20.1633 15.5166V12.8549H26.254V8.7959H9.67038V12.8549H15.7611V15.5155C10.8111 15.7428 7.0885 16.7238 7.0885 17.8983C7.0885 19.0728 10.8111 20.0526 15.7611 20.281V28.8108H20.1633V20.2788C25.1054 20.0515 28.819 19.0716 28.819 17.8983C28.819 16.7249 25.1054 15.745 20.1633 15.5166Z" fill="white"/>
</g>
<defs>
<clipPath id="clip0_3247_20504">
<rect width="36" height="36" fill="white" transform="translate(0.000976562)"/>
</clipPath>
</defs>
</svg>

<?xml version="1.0"?><svg width="36" height="36" viewBox="0 0 36 36" xmlns="http://www.w3.org/2000/svg" fill="none"><g clip-path="url(#a)"><path d="m18 36c9.9 0 18-8.1 18-18s-8.1-18-18-18c-9.9 0-18 8.1-18 18s8.1 18 18 18z" fill="#26A17B"></path><path fill-rule="evenodd" clip-rule="evenodd" d="m20.2 19.6v0c-0.2 0-0.8 0-2.2 0-1.2 0-2 0-2.2 0v0c-4.4-0.2-7.7-1-7.7-1.9 0-0.9 3.3-1.7 7.7-1.9v3c0.2 0 1.1 0.1 2.2 0.1 1.4 0 2-0.1 2.2-0.1v-3c4.3 0.2 7.6 1 7.6 1.9 0 0.9-3.3 1.7-7.6 1.9z m0-4.1v-2.6h6.1v-4.1h-16.6v4.1h6.1v2.6c-5 0.2-8.7 1.2-8.7 2.4 0 1.2 3.7 2.2 8.7 2.4v8.5h4.4v-8.5c4.9-0.2 8.6-1.2 8.6-2.4 0-1.2-3.7-2.2-8.6-2.4z" fill="#fff"></path></g><defs><clipPath id="a"><path fill="#fff" d="m0 0h36v36h-36z"></path></clipPath></defs></svg>
